X: 7423
T: Cloone, The
R: reel
M: 4/4
K: Cmajor
e|:dcAE ~G3A|GEcE ~G3e|dcAE ~G3A|GEcE EDDe|
dcAE ~G3A|GEcE ~G3z|gaeg dged|1 cAGE D3e:|2 cAGE D3B||
|:c2ec gcec|~g3a gede|c2ec gcec|g2cd eddB|
c2ec gcec|~g3a ged2|a2ec d2ed|1 cAGE D3B:|2 cAGE D3||

